twotone/svg/check_box.svg

<svg xmlns="http://www.w3.org/2000/svg" width="24" height="24"><path fill="none" d="M0 0h24v24H0V0z"/><g fill="currentColor"><path opacity=".3" d="M5 19h14V5H5v14zm2.41-7.4l2.58 2.58 6.59-6.59L17.99 9l-8 8L6 13.01l1.41-1.41z"/><path d="M19 3H5c-1.1 0-2 .9-2 2v14c0 1.1.9 2 2 2h14c1.1 0 2-.9 2-2V5c0-1.1-.9-2-2-2zm0 16H5V5h14v14z"/><path d="M17.99 9l-1.41-1.42-6.59 6.59-2.58-2.57-1.42 1.41 4 3.99z"/></g></svg>

<?xml version="1.0" encoding="utf-8"?>
<!-- Generator: Adobe Illustrator 19.1.0, SVG Export Plug-In . SVG Version: 6.00 Build 0)  -->
<svg version="1.1" xmlns="http://www.w3.org/2000/svg" xmlns:xlink="http://www.w3.org/1999/xlink" x="0px" y="0px" width="24px"
	 height="24px" viewBox="0 0 24 24" enable-background="new 0 0 24 24" xml:space="preserve">
<g id="Bounding_Boxes">
	<path fill="none" d="M0,0h24v24H0V0z"/>
</g>
<g id="Duotone" fill="currentColor">
	<g>
		<path opacity="0.3" d="M5,19h14V5H5V19z M7.41,11.6l2.58,2.58l6.59-6.59L17.99,9L9.99,17l-3.99-3.99L7.41,11.6z"/>
		<path d="M19,3H5C3.9,3,3,3.9,3,5v14c0,1.1,0.9,2,2,2h14c1.1,0,2-0.9,2-2V5C21,3.9,20.1,3,19,3z M19,19H5V5h14V19z"/>
		<polygon points="17.99,9 16.58,7.58 9.99,14.17 7.41,11.6 5.99,13.01 9.99,17 		"/>
	</g>
</g>
</svg>
